outputs/icons/image/hdr_sharp.svg

<svg xmlns="http://www.w3.org/2000/svg" width="1200" height="1200" fill="none"><g clip-path="url(#a)"><path fill="#000" d="M1050 575v-50c0-40-35-75-75-75H800v300h75V650h55l45 100h75l-45-105c25-15 45-40 45-70m-75 0H875v-50h100zm-650-25H225V450h-75v300h75V625h100v125h75V450h-75zm325-100H475v300h175c40 0 75-35 75-75V525c0-40-35-75-75-75m0 225H550V525h100z"/></g><defs><clipPath id="a"><path fill="#fff" d="M0 0h1200v1200H0z"/></clipPath></defs></svg>

<svg width="1200" height="1200" viewBox="0 0 1200 1200" fill="none" xmlns="http://www.w3.org/2000/svg"><g clip-path="url(#clip0_1103_2969)"><path d="M1050 575V525C1050 485 1015 450 975 450H800V750H875V650H930L975 750H1050L1005 645C1030 630 1050 605 1050 575ZM975 575H875V525H975V575ZM325 550H225V450H150V750H225V625H325V750H400V450H325V550ZM650 450H475V750H650C690 750 725 715 725 675V525C725 485 690 450 650 450ZM650 675H550V525H650V675Z" fill="#1D1E23"/></g><defs><clipPath id="clip0_1103_2969"><path width="24" fill="white" d="M0 0H1200V1200H0V0z"/></clipPath></defs></svg>
